X:1
T:Title
%%score { ( 1 3 ) | ( 2 4 ) }
L:1/8
M:4/4
K:Bb
V:1 treble nm="Grand Piano"
V:3 treble 
V:2 bass 
V:4 bass 
V:1
 z4 z2[Q:1/4=100] [B,D]>[CE] | [DF]2 [DF]2 [DF]2 [EG]>[EA] | [DB]2 [DB]2 [DB]2 c>d | %3
 [Ge]2 [Ge]2 [EG]2 [Ge]2 | [Fd]>[Fc] [FB]>[Fd] c2 A>B | c2 c2 c2 A>B | c2 c2 c2 [Ac]>[Af] | %7
 [G=e]2 [Bd]2 [Ac]>[Bd] [Ac]>[GB] |[M:7/8] [FA]2 [=EG]2 F3 |[M:1/4][K:bass] F,>G, | %10
[M:4/4][K:treble] [Af]2 [Af]2 [EAf]2 z2 | [Bf]2 [Bf]2 f2 B,>A, | z2 [B=e]2 z4 | [Af]6 F>F | %14
 [ce]>d c>B z z/ E/ B>c | [Bd]>c B>G F2 B>B | B2 B2 B2 [_AB]>B | [Bg]6[K:bass] (3E,D,C, | %18
 [Ff]2 [Ff]2 [Ff]2 z2 | [EAf]2 [EAf]2 [Af]2 z2 | z4 [Bf]4 |[M:5/4] [Af][Af]- [Af]6 [A,F]2 | %22
[M:4/4] [B,FB]2 [Fc]2 [Fd]2 [Fe]2 | z4 f2 e2 | %24
[M:5/4] d2 d2 d3 [EFc]3[Q:1/4=98][Q:1/4=97][Q:1/4=95][Q:1/4=94][Q:1/4=92][Q:1/4=91][Q:1/4=89][Q:1/4=88][Q:1/4=86][Q:1/4=84][Q:1/4=83][Q:1/4=81][Q:1/4=80][Q:1/4=78][Q:1/4=77] | %25
[M:3/4] [DFB]6 |] %26
V:2
 z4 z2 [B,,F,]>[B,,F,] | [B,,B,]2 [B,,B,]2 [B,,B,]2 [B,,B,]>[B,,B,] | %2
 [B,,B,]2 [B,,B,]2 [B,,B,]2[K:treble] [CE]>[B,F] | [E,B,]2 [E,B,]2 [E,B,]2 [E,B,]2 | %4
 [B,,B,]>[C,A,] [D,B,]>[B,,B,][K:treble] [F,A,F]2 [F,CF]>[G,C=E] | %5
 [A,CF]2 [G,B,=E]2 [F,A,F]2 [F,CF]>[G,CE] | [A,CF]2[K:bass] [G,B,=E]2 [F,A,F]2 [F,C]>[F,C] | %7
 [C,C]2 [C,C]2 [C,C]>[C,C] [C,C]>[C,C] |[M:7/8] [C,C]2 [C,B,]2 [F,A,]3 |[M:1/4] z2 | %10
[M:4/4] [F,E]2 [E,C]2 C,2 F,>G, | [F,D]2 [D,B,]2 [B,,DB]2 z2 | [G,C]2 [G,C]2 [B,CG]2 [CB]2 | %13
 [F,C]6 z2 | z z/[K:treble] B/ A>G F2 D>F | z z/[K:treble] F/ D>E D2 [_A,DF]>[A,DF] | %16
 [G,E]2 [_A,DF]2[K:bass] [G,E]2 [F,D]2 | [E,E]6 z2 | [D,B,]2 B,2 B,2 (3D,C,B,, | %19
 C,2 z2 E2 (3C,B,,A,, | z4 F,2 z2 |[M:5/4] CC C6 E,2 |[M:4/4] D,2 [F,A,]2 [B,,B,]2 [B,,C]2 | %23
 [B,DB]3 [B,EB] .[B,DB]2[K:bass] [E,B,]2 |[M:5/4] [F,B,F]2 [G,B,=E]2 [F,B,F]3 [F,,F,]3 | %25
[M:3/4] B,,6 |] %26
V:3
 x8 | x8 | x8 | x8 | x8 | x8 | x8 | x8 |[M:7/8] x7 |[M:1/4][K:bass] x2 |[M:4/4][K:treble] x8 | x8 | %12
 [B=e]2 z z/ A,/ e2 e2 | x8 | z4 A2 z2 | x8 | x8 | x6[K:bass] x2 | x8 | x8 | %20
 [DBf]4 z z/ G,/ A,>B, |[M:5/4] x10 |[M:4/4] x8 | f3 g z _AG^F |[M:5/4] x10 |[M:3/4] x6 |] %26
V:4
 x8 | x8 | x6[K:treble] x2 | x8 | x4[K:treble] x4 | x8 | x2[K:bass] x6 | x8 |[M:7/8] x7 | %9
[M:1/4] x2 |[M:4/4] x8 | x8 | x8 | x8 | [F,,F,]6[K:treble] z2 | [B,,B,]6[K:treble] z2 | %16
 x4[K:bass] x4 | x8 | z2 D,4 z2 | z2 C,4 z2 | B,,>C, D,>E, D4 |[M:5/4] F,2- F,6 z2 |[M:4/4] x8 | %23
 x6[K:bass] x2 |[M:5/4] x10 |[M:3/4] x6 |] %26

